X:659
T: Zhuo yangren
N: C2185
O: China,Hunan Yongshun
S: I, 522]
R: Xiaodiao, Huadeng diao]
M: 2/4
L: 1/16
K: D
B2B2d2B2 | d4B2d2 | e2e2z4 | e3dB4 | d4z4 |
d2B2d2z2 | A2G2A2z2 | A2G2A2G2 | A6e2 | d4z4 |
B2eeB4 | e3dd2ed | B4z2d2 | B6e2 | d4z4 |
B6d2 | e2B2z4 | e3dd2e2 | d2B2A4 |
A2A2d2B2 | A6G2 | E8 | e3dd2e2 | d2B2A4 |
A2A2d2B2 | A6G2 | E8

@@@ Tune index: 7214
